; generated by PrusaSlicer 2.1.0+linux64 on 2019-12-19 at 17:28:49 UTC

; 

; external perimeters extrusion width = 0.45mm
; perimeters extrusion width = 0.45mm
; infill extrusion width = 0.45mm
; solid infill extrusion width = 0.45mm
; top infill extrusion width = 0.45mm
; first layer extrusion width = 0.48mm

M107
; set and wait on bed temperature
M140 S50
M190 S50
; set and wait on hot end temperature
M104 S195 T0
M140 S50
M109 S195 T0
; home axes, probe/adjust z-offset, and pause 4s
G28
G29 P0
G0 X0 Y0 Z60 F3600
G4 S4
; extrude a strip outside of the perimeter
G92 E0
G1 X-54 Y0 Z0.32 F2700
G3 X0 Y-54 I54 E20 F900
G92 E0
G21 ; set units to millimeters
G90 ; use absolute coordinates
M82 ; use absolute distances for extrusion
G92 E0
M900 K200
G1 E-4.00000 F4800.00000
G92 E0
G1 Z0.200 F7200.000
G1 Z0.400
G1 X10.964 Y-1.741
G1 Z0.200
G1 E4.00000 F4800.00000
G1 F1200
G1 X11.030 Y0.617 E4.08400
G1 X9.483 Y24.864 E4.94937
G1 X9.150 Y26.079 E4.99422
G1 X8.860 Y26.634 E5.01655
G1 X8.453 Y27.189 E5.04106
G1 X7.924 Y27.702 E5.06730
G1 X7.408 Y28.065 E5.08976
G1 X6.211 Y28.561 E5.13592
G1 X5.081 Y28.703 E5.17646
G1 X-5.652 Y28.666 E5.55873
G1 X-6.305 Y28.536 E5.58245
G1 X-7.027 Y28.269 E5.60987
G1 X-7.609 Y27.938 E5.63373
G1 X-8.131 Y27.524 E5.65745
G1 X-8.592 Y27.022 E5.68173
G1 X-9.005 Y26.384 E5.70879
G1 X-9.276 Y25.757 E5.73311
G1 X-9.448 Y25.097 E5.75741
G1 X-11.022 Y0.832 E6.62347
G1 X-11.034 Y-0.655 E6.67642
G1 X-10.906 Y-2.286 E6.73468
G1 X-10.433 Y-4.717 E6.82289
G1 X-9.656 Y-7.013 E6.90921
G1 X-8.605 Y-9.137 E6.99364
G1 X-7.239 Y-11.171 E7.08091
G1 X-6.359 Y-12.220 E7.12968
G1 X-5.400 Y-13.202 E7.17856
G1 X-3.325 Y-14.898 E7.27400
G1 X-1.486 Y-15.994 E7.35027
G1 X-0.761 Y-16.209 E7.37719
G1 X0.039 Y-16.283 E7.40581
G1 X0.749 Y-16.211 E7.43121
G1 X1.423 Y-16.018 E7.45620
G1 X2.945 Y-15.158 E7.51845
G1 X4.824 Y-13.725 E7.60261
G1 X6.629 Y-11.913 E7.69371
G1 X8.007 Y-10.100 E7.77484
G1 X9.094 Y-8.233 E7.85178
G1 X9.980 Y-6.171 E7.93170
G1 X10.573 Y-4.152 E8.00665
G1 X10.955 Y-1.800 E8.09150
G1 E4.89150 F4800.00000
G1 F5760
G1 X10.985 Y-0.841 E4.13150
G1 E4.09150 F4800.00000
G92 E0
G1 Z0.400 F7200.000
G1 X8.709 Y25.994
G1 Z0.200
G1 E4.00000 F4800.00000
G1 F1200
G1 X8.048 Y26.986 E4.04245
G1 X7.141 Y27.715 E4.08392
G1 X6.072 Y28.145 E4.12496
G1 X5.073 Y28.266 E4.16080
G1 X-5.600 Y28.232 E4.54092
G1 X-6.184 Y28.116 E4.56215
G1 X-6.849 Y27.869 E4.58740
G1 X-7.850 Y27.188 E4.63053
G1 X-8.318 Y26.659 E4.65566
G1 X-8.636 Y26.147 E4.67712
G1 X-8.874 Y25.581 E4.69901
G1 X-9.033 Y24.927 E4.72297
G1 X-10.586 Y0.808 E5.58378
G1 X-10.597 Y-0.652 E5.63580
G1 X-10.472 Y-2.233 E5.69226
G1 X-10.010 Y-4.606 E5.77837
G1 X-9.253 Y-6.843 E5.86251
G1 X-8.229 Y-8.916 E5.94485
G1 X-6.902 Y-10.892 E6.02962
G1 X-5.305 Y-12.687 E6.11519
G1 X-4.313 Y-13.588 E6.16292
G1 X-3.241 Y-14.423 E6.21132
G1 X-1.426 Y-15.544 E6.28731
G1 X-0.713 Y-15.773 E6.31396
G1 X0.039 Y-15.846 E6.34090
G1 X0.682 Y-15.779 E6.36390
G1 X1.303 Y-15.595 E6.38698
G1 X2.847 Y-14.697 E6.45060
G1 X4.729 Y-13.226 E6.53567
G1 X6.422 Y-11.484 E6.62219
G1 X7.653 Y-9.844 E6.69522
G1 X8.722 Y-7.999 E6.77115
G1 X9.573 Y-6.011 E6.84818
G1 X10.184 Y-3.890 E6.92680
G1 X10.530 Y-1.687 E7.00623
G1 X10.594 Y0.605 E7.08787
G1 X9.049 Y24.812 E7.95181
G1 X8.726 Y25.936 E7.99347
G1 E4.79347 F4800.00000
G1 F5760
G1 X8.205 Y26.743 E4.03347
G1 E3.99347 F4800.00000
G92 E0
G1 Z0.400 F7200.000
G1 X2.056 Y20.376
G1 Z0.200
G1 E4.00000 F4800.00000
G1 F1200
G1 X2.189 Y20.419 E4.00497
G1 X2.514 Y20.591 E4.01806
G1 X2.747 Y20.788 E4.02893
G1 X2.938 Y21.024 E4.03975
G1 X3.091 Y21.299 E4.05094
G1 X3.202 Y21.610 E4.06270
G1 X3.253 Y21.842 E4.07116
G1 X3.292 Y22.215 E4.08453
G1 X3.286 Y22.642 E4.09974
G1 X3.253 Y22.916 E4.10957
G1 X3.188 Y23.204 E4.12008
G1 X3.062 Y23.550 E4.13320
G1 X2.947 Y23.774 E4.14217
G1 X2.743 Y24.075 E4.15512
G1 X2.495 Y24.347 E4.16823
G1 X2.208 Y24.582 E4.18143
G1 X1.889 Y24.774 E4.19471
G1 X1.656 Y24.882 E4.20385
G1 X1.407 Y24.970 E4.21327
G1 X0.996 Y25.072 E4.22833
G1 X0.528 Y25.138 E4.24518
G1 X0.176 Y25.160 E4.25772
G1 X-0.198 Y25.161 E4.27104
G1 X-0.722 Y25.124 E4.28977
G1 X-1.356 Y25.005 E4.31273
G1 X-1.639 Y24.914 E4.32331
G1 X-2.000 Y24.752 E4.33741
G1 X-2.225 Y24.618 E4.34675
G1 X-2.517 Y24.392 E4.35989
G1 X-2.697 Y24.214 E4.36890
G1 X-2.925 Y23.926 E4.38200
G1 X-3.157 Y23.499 E4.39929
G1 X-3.304 Y23.029 E4.41685
G1 X-3.366 Y22.521 E4.43507
G1 X-3.351 Y22.029 E4.45259
G1 X-3.283 Y21.645 E4.46650
G1 X-3.130 Y21.235 E4.48207
G1 X-2.885 Y20.859 E4.49805
G1 X-2.740 Y20.698 E4.50580
G1 X-2.544 Y20.538 E4.51481
G1 X-2.396 Y20.458 E4.52076
G1 X-2.183 Y20.402 E4.52863
G1 X-1.996 Y20.409 E4.53529
G1 X-1.835 Y20.454 E4.54125
G1 X-1.575 Y20.617 E4.55216
G1 X-1.433 Y20.803 E4.56052
G1 X-1.374 Y20.964 E4.56661
G1 X-1.362 Y21.174 E4.57411
G1 X-1.416 Y21.402 E4.58244
G1 X-1.529 Y21.648 E4.59209
G1 X-1.816 Y22.124 E4.61189
G1 X-1.886 Y22.368 E4.62094
G1 X-1.885 Y22.576 E4.62833
G1 X-1.842 Y22.784 E4.63592
G1 X-1.760 Y22.987 E4.64371
G1 X-1.644 Y23.166 E4.65128
G1 X-1.560 Y23.259 E4.65578
G1 X-1.400 Y23.386 E4.66306
G1 X-1.192 Y23.497 E4.67143
G1 X-1.031 Y23.556 E4.67754
G1 X-0.847 Y23.606 E4.68433
G1 X-0.515 Y23.659 E4.69630
G1 X0.080 Y23.681 E4.71750
G1 X0.635 Y23.633 E4.73736
G1 X0.941 Y23.563 E4.74852
G1 X1.119 Y23.499 E4.75527
G1 X1.267 Y23.425 E4.76116
G1 X1.450 Y23.296 E4.76915
G1 X1.652 Y23.049 E4.78052
G1 X1.745 Y22.853 E4.78825
G1 X1.803 Y22.637 E4.79619
G1 X1.823 Y22.409 E4.80437
G1 X1.801 Y22.168 E4.81297
G1 X1.713 Y21.903 E4.82293
G1 X1.645 Y21.812 E4.82696
G1 X1.483 Y21.684 E4.83433
G1 X1.396 Y21.567 E4.83953
G1 X1.333 Y21.429 E4.84493
G1 X1.296 Y21.209 E4.85286
G1 X1.324 Y20.965 E4.86160
G1 X1.458 Y20.670 E4.87315
G1 X1.676 Y20.461 E4.88390
G1 X1.904 Y20.381 E4.89251
G1 X1.996 Y20.378 E4.89580
G1 X2.142 Y20.266 F7200.000
G1 E1.69580 F4800.00000
G1 F5760
G1 X2.189 Y20.419 E1.53991
G1 X2.514 Y20.591 E1.24895
G1 X2.747 Y20.788 E1.00720
G1 X2.803 Y20.858 E0.93580
G1 E0.89580 F4800.00000
G92 E0
G1 Z0.400 F7200.000
G1 X3.002 Y17.746
G1 Z0.200
G1 E4.00000 F4800.00000
G1 F1200
G1 X2.849 Y17.885 E4.00736
G1 X2.658 Y17.952 E4.01455
G1 X2.504 Y17.967 E4.02006
G1 X1.926 Y17.925 E4.04073
G1 X-0.856 Y17.942 E4.13981
G1 X-1.418 Y17.907 E4.15987
G1 X-1.583 Y17.930 E4.16577
G1 X-1.706 Y18.024 E4.17131
G1 X-1.778 Y18.190 E4.17775
G1 X-1.791 Y18.439 E4.18664
G1 X-1.715 Y19.092 E4.21004
G1 X-1.736 Y19.320 E4.21820
G1 X-1.819 Y19.520 E4.22589
G1 X-2.024 Y19.713 E4.23593
G1 X-2.317 Y19.819 E4.24704
G1 X-2.636 Y19.817 E4.25839
G1 X-2.860 Y19.737 E4.26688
G1 X-3.000 Y19.643 E4.27286
G1 X-3.140 Y19.476 E4.28065
G1 X-3.207 Y19.303 E4.28723
G1 X-3.228 Y19.147 E4.29284
G1 X-3.185 Y18.500 E4.31595
G1 X-3.200 Y15.262 E4.43128
G1 X-3.170 Y15.027 E4.43968
G1 X-3.045 Y14.786 E4.44938
G1 X-2.809 Y14.637 E4.45930
G1 X-2.553 Y14.588 E4.46860
G1 X-2.325 Y14.602 E4.47673
G1 X-2.087 Y14.689 E4.48577
G1 X-1.928 Y14.834 E4.49343
G1 X-1.830 Y15.020 E4.50091
G1 X-1.777 Y15.247 E4.50921
G1 X-1.750 Y15.641 E4.52328
G1 X-1.770 Y16.424 E4.55118
G1 X-1.749 Y16.491 E4.55369
G1 X-1.705 Y16.506 E4.55532
G1 X1.521 Y16.518 E4.67025
G1 X2.169 Y16.497 E4.69331
G1 X2.452 Y16.511 E4.70340
G1 X2.626 Y16.550 E4.70974
G1 X2.838 Y16.642 E4.71799
G1 X3.047 Y16.847 E4.72842
G1 X3.128 Y17.051 E4.73624
G1 X3.150 Y17.209 E4.74193
G1 X3.143 Y17.379 E4.74799
G1 X3.081 Y17.605 E4.75632
G1 X3.031 Y17.694 E4.75996
G1 X3.076 Y17.939 F7200.000
G1 E1.55996 F4800.00000
G1 F5760
G1 X2.849 Y17.885 E1.35079
G1 X2.658 Y17.952 E1.19094
G1 X2.504 Y17.967 E1.06842
G1 X2.166 Y17.942 E0.79996
G1 E0.75996 F4800.00000
G92 E0
G1 Z0.400 F7200.000
G1 X1.701 Y13.876
G1 Z0.200
G1 E4.00000 F4800.00000
G1 F1200
G1 X1.563 Y13.719 E4.00744
G1 X1.477 Y13.520 E4.01517
G1 X1.446 Y13.347 E4.02144
G1 X1.470 Y13.023 E4.03301
G1 X1.580 Y12.758 E4.04320
G1 X1.899 Y12.305 E4.06295
G1 X1.927 Y12.190 E4.06715
G1 X1.918 Y12.089 E4.07077
G1 X1.847 Y11.906 E4.07777
G1 X1.720 Y11.750 E4.08494
G1 X1.525 Y11.635 E4.09300
G1 X1.315 Y11.597 E4.10060
G1 X1.175 Y11.611 E4.10558
G1 X0.960 Y11.692 E4.11379
G1 X0.800 Y11.798 E4.12060
G1 X0.652 Y11.944 E4.12802
G1 X0.537 Y12.111 E4.13523
G1 X0.457 Y12.297 E4.14243
G1 X0.362 Y12.784 E4.16013
G1 X0.295 Y13.011 E4.16855
G1 X0.137 Y13.227 E4.17809
G1 X-0.119 Y13.335 E4.18798
G1 X-0.358 Y13.340 E4.19650
G1 X-0.594 Y13.281 E4.20516
G1 X-0.753 Y13.202 E4.21150
G1 X-0.931 Y13.048 E4.21988
G1 X-1.055 Y12.796 E4.22988
G1 X-1.133 Y12.339 E4.24639
G1 X-1.182 Y12.195 E4.25181
G1 X-1.257 Y12.077 E4.25678
G1 X-1.358 Y11.980 E4.26177
G1 X-1.468 Y11.919 E4.26624
G1 X-1.567 Y11.896 E4.26986
G1 X-1.720 Y11.910 E4.27536
G1 X-1.820 Y11.952 E4.27921
G1 X-1.901 Y12.017 E4.28291
G1 X-1.949 Y12.089 E4.28601
G1 X-1.978 Y12.182 E4.28945
G1 X-1.981 Y12.307 E4.29392
G1 X-1.908 Y12.557 E4.30319
G1 X-1.579 Y13.094 E4.32561
G1 X-1.534 Y13.301 E4.33317
G1 X-1.571 Y13.504 E4.34050
G1 X-1.664 Y13.670 E4.34728
G1 X-1.828 Y13.836 E4.35559
G1 X-2.044 Y13.963 E4.36452
G1 X-2.269 Y14.022 E4.37282
G1 X-2.430 Y14.018 E4.37854
G1 X-2.622 Y13.955 E4.38576
G1 X-2.758 Y13.868 E4.39147
G1 X-2.932 Y13.694 E4.40024
G1 X-3.138 Y13.365 E4.41408
G1 X-3.287 Y12.952 E4.42972
G1 X-3.366 Y12.419 E4.44890
G1 X-3.365 Y11.993 E4.46407
G1 X-3.312 Y11.583 E4.47882
G1 X-3.192 Y11.178 E4.49385
G1 X-3.042 Y10.900 E4.50509
G1 X-2.782 Y10.605 E4.51909
G1 X-2.461 Y10.395 E4.53276
G1 X-2.120 Y10.295 E4.54540
G1 X-1.917 Y10.277 E4.55268
G1 X-1.580 Y10.286 E4.56469
G1 X-1.320 Y10.313 E4.57401
G1 X-1.057 Y10.375 E4.58362
G1 X-0.841 Y10.483 E4.59222
G1 X-0.660 Y10.648 E4.60095
G1 X-0.494 Y10.919 E4.61226
G1 X-0.419 Y10.740 E4.61917
G1 X-0.326 Y10.600 E4.62518
G1 X-0.159 Y10.439 E4.63343
G1 X0.053 Y10.316 E4.64216
G1 X0.367 Y10.203 E4.65405
G1 X0.803 Y10.082 E4.67017
G1 X1.155 Y10.035 E4.68284
G1 X1.438 Y10.044 E4.69289
G1 X1.752 Y10.105 E4.70428
G1 X2.072 Y10.221 E4.71640
G1 X2.286 Y10.331 E4.72498
G1 X2.565 Y10.526 E4.73711
G1 X2.802 Y10.758 E4.74893
G1 X2.993 Y11.022 E4.76054
G1 X3.099 Y11.225 E4.76869
G1 X3.210 Y11.531 E4.78029
G1 X3.275 Y11.865 E4.79239
G1 X3.297 Y12.261 E4.80652
G1 X3.276 Y12.666 E4.82098
G1 X3.208 Y13.033 E4.83426
G1 X3.114 Y13.319 E4.84498
G1 X2.940 Y13.627 E4.85759
G1 X2.750 Y13.822 E4.86730
G1 X2.477 Y13.971 E4.87837
G1 X2.146 Y14.027 E4.89033
G1 X1.848 Y13.966 E4.90118
G1 X1.752 Y13.907 E4.90516
G1 X1.507 Y13.952 F7200.000
G1 E1.70516 F4800.00000
G1 F5760
G1 X1.563 Y13.719 E1.49396
G1 X1.477 Y13.520 E1.32216
G1 X1.446 Y13.347 E1.18283
G1 X1.468 Y13.047 E0.94516
G1 E0.90516 F4800.00000
G92 E0
G1 Z0.400 F7200.000
G1 X3.093 Y8.751
G1 Z0.200
G1 E4.00000 F4800.00000
G1 F1200
G1 X2.907 Y8.951 E4.00974
G1 X2.628 Y9.070 E4.02053
G1 X2.271 Y9.112 E4.03334
G1 X1.664 Y9.095 E4.05497
G1 X-1.948 Y9.090 E4.18363
G1 X-2.503 Y9.134 E4.20344
G1 X-2.796 Y9.087 E4.21401
G1 X-2.969 Y8.966 E4.22155
G1 X-3.068 Y8.838 E4.22729
G1 X-3.175 Y8.561 E4.23788
G1 X-3.207 Y8.258 E4.24872
G1 X-3.170 Y6.648 E4.30610
G1 X-3.134 Y6.332 E4.31742
G1 X-3.055 Y5.936 E4.33179
G1 X-2.947 Y5.616 E4.34383
G1 X-2.799 Y5.333 E4.35521
G1 X-2.601 Y5.069 E4.36696
G1 X-2.389 Y4.859 E4.37758
G1 X-2.103 Y4.643 E4.39034
G1 X-1.772 Y4.460 E4.40381
G1 X-1.404 Y4.314 E4.41792
G1 X-0.999 Y4.210 E4.43279
G1 X-0.529 Y4.144 E4.44971
G1 X-0.136 Y4.125 E4.46371
G1 X0.331 Y4.137 E4.48035
G1 X0.671 Y4.175 E4.49253
G1 X1.121 Y4.267 E4.50890
G1 X1.526 Y4.403 E4.52412
G1 X1.884 Y4.579 E4.53834
G1 X2.194 Y4.792 E4.55174
G1 X2.462 Y5.043 E4.56480
G1 X2.690 Y5.329 E4.57782
G1 X2.860 Y5.631 E4.59020
G1 X2.946 Y5.846 E4.59843
G1 X3.036 Y6.191 E4.61114
G1 X3.097 Y6.612 E4.62626
G1 X3.123 Y7.134 E4.64489
G1 X3.116 Y7.952 E4.67404
G1 X3.159 Y8.478 E4.69282
G1 X3.107 Y8.692 E4.70067
G1 X3.233 Y8.985 F7200.000
G1 E1.50067 F4800.00000
G1 F5760
G1 X2.907 Y8.951 E1.24183
G1 X2.628 Y9.070 E1.00190
G1 X2.301 Y9.109 E0.74067
G1 E0.70067 F4800.00000
G92 E0
G1 Z0.400 F7200.000
G1 X2.474 Y4.453
G1 Z0.200
G1 E4.00000 F4800.00000
G1 F1200
G1 X2.254 Y4.453 E4.00786
G1 X2.033 Y4.412 E4.01586
G1 X1.740 Y4.290 E4.02717
G1 X1.557 Y4.159 E4.03519
G1 X1.400 Y3.999 E4.04315
G1 X1.232 Y3.728 E4.05450
G1 X1.159 Y3.514 E4.06255
G1 X1.125 Y3.294 E4.07050
G1 X1.146 Y2.977 E4.08181
G1 X1.209 Y2.760 E4.08986
G1 X1.309 Y2.564 E4.09768
G1 X1.439 Y2.390 E4.10544
G1 X1.599 Y2.239 E4.11327
G1 X1.784 Y2.120 E4.12110
G1 X1.990 Y2.033 E4.12909
G1 X2.303 Y1.976 E4.14041
G1 X2.529 Y1.986 E4.14845
G1 X2.747 Y2.036 E4.15643
G1 X3.034 Y2.171 E4.16773
G1 X3.212 Y2.310 E4.17576
G1 X3.362 Y2.478 E4.18378
G1 X3.517 Y2.756 E4.19511
G1 X3.581 Y2.972 E4.20314
G1 X3.604 Y3.189 E4.21092
G1 X3.589 Y3.408 E4.21874
G1 X3.537 Y3.620 E4.22651
G1 X3.446 Y3.825 E4.23452
G1 X3.270 Y4.065 E4.24510
G1 X3.086 Y4.226 E4.25383
G1 X2.895 Y4.338 E4.26169
G1 X2.690 Y4.413 E4.26948
G1 X2.533 Y4.442 E4.27515
G1 X2.381 Y4.653 F7200.000
G1 E1.07515 F4800.00000
G1 F5760
G1 X2.254 Y4.453 E0.85349
G1 X2.033 Y4.412 E0.67569
G1 X1.740 Y4.290 E0.42445
G1 X1.628 Y4.210 E0.31515
G1 E0.27515 F4800.00000
G92 E0
G1 Z0.400 F7200.000
G1 X2.943 Y-1.894
G1 Z0.200
G1 E4.00000 F4800.00000
G1 F1200
G1 X3.082 Y-1.814 E4.00571
G1 X3.218 Y-1.664 E4.01291
G1 X3.291 Y-1.520 E4.01868
G1 X3.339 Y-1.305 E4.02650
G1 X3.335 Y-1.131 E4.03270
G1 X3.271 Y-0.922 E4.04050
G1 X3.145 Y-0.755 E4.04795
G1 X3.021 Y-0.648 E4.05378
G1 X2.093 Y-0.124 E4.09172
G1 X2.620 Y0.136 E4.11263
G1 X2.968 Y0.369 E4.12754
G1 X3.158 Y0.535 E4.13653
G1 X3.300 Y0.763 E4.14610
G1 X3.325 Y0.997 E4.15450
G1 X3.238 Y1.275 E4.16489
G1 X3.041 Y1.508 E4.17574
G1 X2.840 Y1.608 E4.18372
G1 X2.628 Y1.627 E4.19129
G1 X2.408 Y1.583 E4.19930
G1 X2.238 Y1.516 E4.20580
G1 X1.310 Y0.987 E4.24385
G1 X0.851 Y0.661 E4.26389
G1 X0.769 Y0.633 E4.26701
G1 X0.679 Y0.661 E4.27035
G1 X0.236 Y0.947 E4.28915
G1 X-0.489 Y1.359 E4.31882
G1 X-0.767 Y1.488 E4.32973
G1 X-1.004 Y1.551 E4.33850
G1 X-1.221 Y1.552 E4.34621
G1 X-1.426 Y1.480 E4.35394
G1 X-1.625 Y1.288 E4.36381
G1 X-1.730 Y1.070 E4.37241
G1 X-1.765 Y0.832 E4.38098
G1 X-1.700 Y0.571 E4.39058
G1 X-1.568 Y0.382 E4.39876
G1 X-1.384 Y0.216 E4.40759
G1 X-1.210 Y0.095 E4.41514
G1 X-0.649 Y-0.206 E4.43783
G1 X-0.987 Y-0.356 E4.45102
G1 X-1.257 Y-0.505 E4.46201
G1 X-1.422 Y-0.634 E4.46947
G1 X-1.597 Y-0.818 E4.47850
G1 X-1.717 Y-1.018 E4.48680
G1 X-1.766 Y-1.288 E4.49659
G1 X-1.672 Y-1.552 E4.50656
G1 X-1.499 Y-1.739 E4.51564
G1 X-1.353 Y-1.831 E4.52179
G1 X-1.131 Y-1.896 E4.53002
G1 X-0.832 Y-1.851 E4.54080
G1 X-0.588 Y-1.731 E4.55049
G1 X0.409 Y-1.133 E4.59191
G1 X0.572 Y-1.064 E4.59819
G1 X0.743 Y-1.040 E4.60434
G1 X0.924 Y-1.091 E4.61104
G1 X2.139 Y-1.818 E4.66148
G1 X2.372 Y-1.913 E4.67043
G1 X2.574 Y-1.948 E4.67773
G1 X2.787 Y-1.940 E4.68534
G1 X2.886 Y-1.911 E4.68900
G1 X3.071 Y-1.991 F7200.000
G1 X4.741 Y-2.122
G1 F1200
G1 X4.614 Y-2.225 E4.69483
G1 X4.506 Y-2.392 E4.70192
G1 X4.367 Y-2.872 E4.71969
G1 X4.299 Y-3.026 E4.72571
G1 X4.129 Y-3.227 E4.73507
G1 X3.904 Y-3.361 E4.74440
G1 X3.334 Y-3.579 E4.76615
G1 X2.945 Y-3.765 E4.78148
G1 X2.725 Y-3.824 E4.78959
G1 X2.515 Y-3.782 E4.79724
G1 X1.891 Y-3.509 E4.82148
G1 X0.286 Y-2.915 E4.88245
G1 X-0.545 Y-2.580 E4.91434
G1 X-0.766 Y-2.524 E4.92249
G1 X-1.047 Y-2.490 E4.93256
G1 X-1.287 Y-2.509 E4.94114
G1 X-1.479 Y-2.581 E4.94843
G1 X-1.607 Y-2.679 E4.95418
G1 X-1.715 Y-2.851 E4.96143
G1 X-1.759 Y-3.065 E4.96919
G1 X-1.751 Y-3.229 E4.97503
G1 X-1.716 Y-3.392 E4.98097
G1 X-1.630 Y-3.590 E4.98866
G1 X-1.432 Y-3.812 E4.99925
G1 X-1.156 Y-3.948 E5.01023
G1 X-0.610 Y-4.096 E5.03038
G1 X0.627 Y-4.582 E5.07771
G1 X0.100 Y-4.742 E5.09732
G1 X-0.976 Y-5.116 E5.13792
G1 X-1.269 Y-5.254 E5.14944
G1 X-1.492 Y-5.407 E5.15907
G1 X-1.611 Y-5.523 E5.16500
G1 X-1.722 Y-5.697 E5.17235
G1 X-1.763 Y-5.895 E5.17955
G1 X-1.718 Y-6.100 E5.18702
G1 X-1.600 Y-6.286 E5.19487
G1 X-1.430 Y-6.440 E5.20303
G1 X-1.216 Y-6.548 E5.21157
G1 X-1.049 Y-6.584 E5.21766
G1 X-0.859 Y-6.579 E5.22442
G1 X-0.698 Y-6.542 E5.23029
G1 X0.022 Y-6.232 E5.25821
G1 X0.669 Y-6.018 E5.28251
G1 X3.330 Y-5.066 E5.38315
G1 X4.500 Y-4.606 E5.42793
G1 X5.012 Y-4.356 E5.44821
G1 X5.194 Y-4.236 E5.45598
G1 X5.402 Y-4.052 E5.46587
G1 X5.571 Y-3.827 E5.47587
G1 X5.705 Y-3.554 E5.48671
G1 X5.811 Y-3.227 E5.49896
G1 X5.859 Y-2.946 E5.50912
